!!!SOCIAL_FUNCTION:	songs with the corn dance
!!!PDT:	1956
!!!OTL: No_2_Buffalo_Dance_Song_(b).krn
!!!LANG: Non-Tone
!!!LING_GROUP: Muskogean
!!!REG: Florida
**kern
*staff1
=1-
*clefF4
*k[b-e-a-d-]
*M3/4
2r
8.B-\L
16B-\Jk
=2
4.B-\
8F\
8.B-\L
16B-\Jk
=3
8A-\L
8F\J
4F\
8.A-\L
16B-\Jk
=4
8A-\L
8F\J
4F\
4r
=5||
*M2/4
4.E-\
8C/
=6
8E-/L
8C/J
8.F\L
16F\Jk
=7||
*M3/4
4F\
4F\
8.A-\L
16B-\Jk
=8
8A-\L
8F\J
4F\
4r
=9
4.E-\
8C/
8E-/L
8C/J
=10
*M2/4
2B-\
=11||
*M3/4
4B-\
4B-\
4B-\
=12||
*M2/4
2B-\
=13
2B-\
*-
